static/images/mobile/copyright/wikipedia-wordmark-arc.svg

<?xml version="1.0" encoding="UTF-8"?>
<svg width="119px" height="19px" viewBox="0 0 119 19" version="1.1" xmlns="http://www.w3.org/2000/svg" xmlns:xlink="http://www.w3.org/1999/xlink">
    <title>arc-wordmark</title>
    <g id="Page-1" stroke="none" stroke-width="1" fill="none" fill-rule="evenodd">
        <path d="M118.371094,14.72412 C118.371094,16.20556 117.865214,16.94629 116.853514,16.94629 C115.974274,16.94629 115.420234,16.15739 115.191404,14.57959 C115.070954,13.03792 114.860174,11.54444 114.559084,10.09912 C114.089344,8.52133 113.131824,7.73243 111.686524,7.73242 C111.048164,7.73243 110.458004,7.83782 109.916014,8.04858 C109.374014,8.25936 108.907304,8.55746 108.515874,8.94287 C108.124424,9.32829 107.820304,9.78597 107.603514,10.31591 C107.386714,10.84587 107.278314,11.43002 107.278324,12.06836 C107.278314,14.01953 108.338214,14.99512 110.458004,14.99511 C111.240874,14.99512 112.065904,14.85661 112.933104,14.57959 C113.005364,14.67594 113.089674,14.80843 113.186034,14.97705 C113.282374,15.14567 113.408844,15.37451 113.565434,15.66357 C113.721994,15.94059 113.836414,16.16943 113.908694,16.35009 C113.980944,16.53076 114.017074,16.65722 114.017094,16.72949 C114.017074,17.00651 113.511214,17.21728 112.499514,17.36181 C112.114084,17.42203 111.758784,17.46118 111.433594,17.47924 C111.108394,17.49731 110.807284,17.50634 110.530274,17.50634 C108.759754,17.50634 107.344554,17.0848 106.284664,16.2417 C105.092284,15.32633 104.496094,14.00749 104.496094,12.28515 C104.496094,10.0931 105.284994,8.35271 106.862794,7.06396 C108.332184,5.83546 110.174964,5.22119 112.391114,5.22119 C114.426584,5.22119 115.992334,6.35336 117.088384,8.61767 C117.919414,10.38819 118.346984,12.42367 118.371094,14.72412 L118.371094,14.72412 Z M101.894534,14.99511 C101.894534,16.06706 101.466954,16.79573 100.611814,17.18115 C100.081864,17.39795 99.1785439,17.50634 97.9018539,17.50634 L90.2416989,17.50634 L90.2416989,14.99511 L95.9506839,14.99511 C96.5890239,14.99512 96.9081939,14.8807 96.9082039,14.65185 C96.0169239,13.1945 95.5712839,12.2972 95.5712939,11.95996 C95.5712839,10.87598 96.2036039,10.33398 97.4682639,10.33398 C98.5522439,10.33398 99.5639539,10.83985 100.503414,11.85156 C101.430814,12.85124 101.894534,13.89909 101.894534,14.99511 L101.894534,14.99511 Z M73.3315429,17.50634 L73.3315429,14.99511 L77.7397459,14.99511 C77.4627249,14.30859 77.2579729,13.65218 77.1254879,13.02588 C76.9929989,12.39958 76.9267559,11.80941 76.9267579,11.25537 C76.9267559,9.77393 77.2519509,8.705 77.9023439,8.04858 C78.5527309,7.39218 79.6066029,7.06396 81.0639649,7.06396 L85.5805659,7.06396 C87.2185749,7.06396 88.3567569,8.03956 88.9951169,9.99072 C89.3202979,11.14698 89.5009619,12.81511 89.5371089,14.99511 L91.4702139,14.99511 L91.4702139,17.50634 L73.3315429,17.50634 Z M86.6645509,11.88769 C86.3152549,10.35808 85.7190639,9.59326 84.8759769,9.59326 L81.3349609,9.59326 C80.2991479,9.59326 79.7812499,10.1473 79.7812499,11.25537 C79.7812499,11.56852 79.8474879,12.03524 79.9799809,12.65551 C80.1124619,13.2758 80.3172139,14.05566 80.5942379,14.99511 L86.9174809,14.99511 L86.6645509,11.88769 Z M62.1303709,17.50634 L62.1303709,14.99511 L63.3950199,14.99511 C66.1531549,15.03125 67.5322229,14.91683 67.5322269,14.65185 C66.9902309,13.59196 66.5837369,12.73682 66.3127439,12.08642 C66.0417449,11.43604 65.9062479,10.97233 65.9062499,10.69531 C65.9062479,10.40625 65.9694799,10.12924 66.0959469,9.86425 C66.2224089,9.59929 66.3910289,9.36744 66.6018069,9.1687 C66.8125779,8.96998 67.0564739,8.81039 67.3334959,8.68994 C67.6105099,8.5695 67.8995719,8.50927 68.2006839,8.50927 C70.5252209,8.50927 71.6874919,10.08708 71.6874999,13.24267 C71.6874919,13.50765 71.6814699,13.78768 71.6694339,14.08276 C71.6573809,14.37785 71.6393149,14.68197 71.6152339,14.99511 L74.5600589,14.99511 L74.5600589,17.50634 L62.1303709,17.50634 Z M45.2202149,17.50634 L45.2202149,14.99511 L58.7700199,14.99511 C59.6131049,14.99512 60.0346549,14.90478 60.0346679,14.72412 C60.0346549,14.37484 59.7335479,13.66423 59.1313479,12.59228 C58.8543169,12.08643 58.6074099,11.65886 58.3906249,11.30957 C58.1738169,10.96029 57.9811079,10.68327 57.8124999,10.47851 C56.9332579,11.18913 56.1323149,11.71908 55.4096679,12.06836 C54.6870039,12.41764 54.0185469,12.59229 53.4042969,12.59228 C52.7538999,12.59229 52.1667419,12.49894 51.6428219,12.31225 C51.1188919,12.12557 50.6461549,11.84554 50.2246089,11.47216 C49.3333309,10.68929 48.8876929,9.67758 48.8876949,8.43701 C48.8876929,7.03988 49.3694629,5.89568 50.3330079,5.00439 C51.3085889,4.13722 52.5069929,3.70361 53.9282229,3.70361 C55.6866769,3.70361 57.5475149,5.16098 59.5107419,8.07568 C60.2695179,9.20785 60.9409849,10.34603 61.5251469,11.49023 C62.1092779,12.63444 62.5940599,13.80273 62.9794919,14.99511 L63.3588869,14.99511 L63.3588869,17.50634 L45.2202149,17.50634 Z M56.6201169,8.47314 C55.8131419,6.96762 54.8014239,6.21484 53.5849609,6.21484 C52.9706969,6.21484 52.4648379,6.41358 52.0673829,6.81103 C51.6699169,7.2085 51.4711919,7.71436 51.4711919,8.32861 C51.4711919,8.58155 51.5223749,8.8134 51.6247559,9.02417 C51.7271269,9.23495 51.8686469,9.41561 52.0493159,9.56616 C52.2299749,9.71672 52.4377379,9.83716 52.6726079,9.92749 C52.9074639,10.01783 53.1513609,10.06298 53.4042969,10.06298 C53.9101489,10.06298 54.4280519,9.93352 54.9580079,9.67456 C55.4879469,9.41561 56.0419829,9.01514 56.6201169,8.47314 L56.6201169,8.47314 Z M45.7260739,17.50634 C45.5092649,18.34944 44.9913619,18.77099 44.1723629,18.77099 C43.1606349,18.77099 42.4680899,18.21093 42.0947269,17.09082 C42.0344969,16.88606 41.9622309,16.48258 41.8779299,15.88037 C41.7936119,15.27816 41.6972569,14.46517 41.5888669,13.4414 C41.4925049,12.6224 41.3690509,11.91781 41.2185059,11.32763 C41.0679449,10.73747 40.8782479,10.26774 40.6494139,9.91845 C40.3603449,9.44873 39.4630469,9.03321 37.9575199,8.67187 C36.7169559,8.3226 36.0966799,7.71436 36.0966799,6.84716 C36.0966799,6.30518 36.3857389,5.85955 36.9638669,5.51025 C37.4576779,5.24529 38.0117139,5.11279 38.6259769,5.11279 C39.4329369,5.11279 41.0950449,5.14893 43.6123049,5.22119 C43.7688699,5.57048 43.9103899,5.9559 44.0368649,6.37744 C44.1633189,6.799 44.2927949,7.25066 44.4252929,7.73242 C44.3891489,7.80469 44.2446179,8.00342 43.9916989,8.32861 C43.9073789,8.42497 43.8471579,8.53337 43.8110349,8.65381 C43.7748919,8.77426 43.7568259,8.90072 43.7568359,9.0332 C43.7568259,9.32227 44.0278219,10.26172 44.5698239,11.85156 C45.2683799,13.82682 45.6176639,14.87467 45.6176759,14.99511 L46.5029299,14.99511 L46.5029299,17.50634 L45.7260739,17.50634 Z M39.8002929,16.51269 C39.8002929,16.74153 39.7551209,16.95833 39.6647949,17.16308 C39.5744569,17.36784 39.4510029,17.5485 39.2944339,17.70507 C39.1378529,17.86165 38.9571889,17.9851 38.7524419,18.07544 C38.5476839,18.16577 38.3308869,18.21093 38.1020509,18.21093 C37.8732049,18.21093 37.6564089,18.16577 37.4516599,18.07544 C37.2469039,17.9851 37.0662399,17.86165 36.9096679,17.70507 C36.7530889,17.5485 36.6296359,17.36784 36.5393069,17.16308 C36.4489719,16.95833 36.4038089,16.74153 36.4038089,16.51269 C36.4038089,16.28385 36.4489719,16.06404 36.5393069,15.85327 C36.6296359,15.6425 36.7530889,15.45882 36.9096679,15.30224 C37.0662399,15.14567 37.2469039,15.02222 37.4516599,14.93188 C37.6564089,14.84155 37.8732049,14.79638 38.1020509,14.79638 C38.3308869,14.79638 38.5476839,14.84155 38.7524419,14.93188 C38.9571889,15.02222 39.1378529,15.14567 39.2944339,15.30224 C39.4510029,15.45882 39.5744569,15.6425 39.6647949,15.85327 C39.7551209,16.06404 39.8002929,16.28385 39.8002929,16.51269 L39.8002929,16.51269 Z M33.4589839,14.99511 C33.4589839,16.06706 33.0314029,16.79573 32.1762699,17.18115 C31.6463129,17.39795 30.7429939,17.50634 29.4663089,17.50634 L21.8061519,17.50634 L21.8061519,14.99511 L27.5151369,14.99511 C28.1534779,14.99512 28.4726509,14.8807 28.4726559,14.65185 C27.5813759,13.1945 27.1357379,12.2972 27.1357419,11.95996 C27.1357379,10.87598 27.7680619,10.33398 29.0327149,10.33398 C30.1166919,10.33398 31.1284099,10.83985 32.0678709,11.85156 C32.9952699,12.85124 33.4589839,13.89909 33.4589839,14.99511 L33.4589839,14.99511 Z M24.7690429,2.11377 C24.7690429,2.87257 24.3835989,3.68857 23.6127929,4.56176 C22.8419339,5.43499 21.6856849,6.38347 20.1440429,7.40722 C17.7231239,8.99708 14.5855949,9.81006 10.7314449,9.84619 C11.0686709,10.0389 11.4661319,10.30087 11.9238279,10.63208 C12.3814949,10.9633 12.8993989,11.38184 13.4775389,11.88769 C14.7060369,12.94759 15.6153789,13.64616 16.2055659,13.98339 C16.7475389,14.32064 17.2684529,14.57357 17.7683109,14.74218 C18.2681269,14.91081 18.7709749,14.99512 19.2768559,14.99511 L23.0527339,14.99511 L23.0527339,17.50634 C22.0169029,17.50634 20.4631929,17.61474 18.3916019,17.83154 C17.3678189,17.96403 16.4735319,18.06038 15.7087399,18.1206 C14.9439119,18.18082 14.2965329,18.21093 13.7666019,18.21093 C13.3691249,18.21093 12.8873539,17.6569 12.3212889,16.54882 C12.2249199,16.34407 12.0894219,16.06404 11.9147949,15.70874 C11.7401389,15.35343 11.5323749,14.91683 11.2915039,14.39892 C10.9542509,13.67627 10.5266799,13.0319 10.0087889,12.46582 C9.4908729,11.89974 8.8705939,11.42399 8.1479489,11.03857 C7.6059469,10.72543 7.0880439,10.48454 6.5942379,10.31591 C6.1004149,10.1473 5.6427329,10.06299 5.2211919,10.06298 C4.6551029,10.06299 4.2757089,10.12924 4.0830079,10.26172 C3.6132749,10.50261 3.3784119,11.08073 3.3784179,11.99609 L3.3784179,14.10986 L3.4145509,16.2417 C3.4145449,17.2775 3.1917259,17.79541 2.7460939,17.79541 C2.0836539,17.79541 1.4453079,16.60302 0.8310549,14.21826 C0.2770153,12.19483 -7.10542736e-15,10.64112 -7.10542736e-15,9.55713 C-7.10542736e-15,8.7863 0.3011038,8.15398 0.9033199,7.66015 C1.4453079,7.19044 2.1197869,6.95557 2.9267579,6.95556 C3.4566999,6.95557 4.2576429,6.99171 5.3295899,7.06396 C5.8715739,7.11215 6.3473219,7.14527 6.7568359,7.16333 C7.1663309,7.1814 7.5095929,7.19044 7.7866209,7.19043 C12.2429859,7.19044 15.4949359,6.40154 17.5424809,4.82373 C17.6388139,4.73943 17.9067989,4.4594 18.3464359,3.98364 C18.7860299,3.5079 19.3852319,2.83644 20.1440429,1.96923 C21.2882249,0.65643 22.2457429,1.77635684e-15 23.0166019,1.77635684e-15 C24.1848689,1.77635684e-15 24.7690429,0.7046 24.7690429,2.11377 L24.7690429,2.11377 Z" id="arc-wordmark" fill="#000000" fill-rule="nonzero"></path>
    </g>
</svg>

<svg xmlns="http://www.w3.org/2000/svg" width="119" height="19"><path fill="#000" fill-rule="nonzero" d="M118.371 14.724c0 1.482-.506 2.222-1.517 2.222-.88 0-1.434-.789-1.663-2.366a35.516 35.516 0 0 0-.632-4.48c-.47-1.579-1.427-2.368-2.872-2.368-.639 0-1.229.106-1.771.317a4.073 4.073 0 0 0-1.4.894 4.06 4.06 0 0 0-.912 1.373 4.586 4.586 0 0 0-.326 1.752c0 1.952 1.06 2.927 3.18 2.927.783 0 1.608-.138 2.475-.415.072.096.157.228.253.397s.223.398.38.687a6 6 0 0 1 .343.686c.072.18.108.307.108.38 0 .277-.506.487-1.517.632-.386.06-.741.1-1.066.117a16.36 16.36 0 0 1-.904.027c-1.77 0-3.185-.421-4.245-1.264-1.193-.916-1.789-2.235-1.789-3.957 0-2.192.789-3.932 2.367-5.221 1.47-1.229 3.312-1.843 5.528-1.843 2.036 0 3.601 1.132 4.697 3.397.831 1.77 1.259 3.806 1.283 6.106Zm-16.476.271c0 1.072-.428 1.8-1.283 2.186-.53.217-1.433.325-2.71.325h-7.66v-2.51h5.709c.638 0 .957-.115.957-.344-.891-1.457-1.337-2.355-1.337-2.692 0-1.084.633-1.626 1.897-1.626 1.084 0 2.096.506 3.035 1.518.928 1 1.392 2.047 1.392 3.143Zm-28.563 2.511v-2.51h4.408a11.822 11.822 0 0 1-.615-1.97 8.572 8.572 0 0 1-.198-1.77c0-1.482.325-2.551.975-3.207.65-.657 1.705-.985 3.162-.985h4.517c1.638 0 2.776.976 3.414 2.927.325 1.156.506 2.824.542 5.004h1.933v2.511H73.332Zm13.333-5.618c-.35-1.53-.946-2.295-1.789-2.295h-3.541c-1.036 0-1.554.554-1.554 1.662 0 .314.066.78.199 1.4.132.62.337 1.4.614 2.34h6.323l-.252-3.107ZM62.13 17.506v-2.51h1.265c2.758.035 4.137-.08 4.137-.344-.542-1.06-.948-1.915-1.22-2.566-.27-.65-.406-1.114-.406-1.39 0-.29.063-.567.19-.832.126-.265.295-.497.506-.695.21-.199.454-.359.731-.48.278-.12.567-.18.868-.18 2.324 0 3.486 1.578 3.486 4.734 0 .265-.006.545-.018.84-.012.295-.03.599-.054.912h2.945v2.511H62.13Zm-16.91 0v-2.51h13.55c.843 0 1.265-.091 1.265-.272 0-.35-.301-1.06-.904-2.132a27.807 27.807 0 0 0-.74-1.282 7.867 7.867 0 0 0-.579-.831c-.879.71-1.68 1.24-2.402 1.59-.723.349-1.391.523-2.006.523-.65 0-1.237-.093-1.761-.28a4.296 4.296 0 0 1-1.418-.84c-.892-.783-1.337-1.794-1.337-3.035 0-1.397.481-2.541 1.445-3.433.976-.867 2.174-1.3 3.595-1.3 1.759 0 3.62 1.457 5.583 4.372a33.497 33.497 0 0 1 2.014 3.414 23.8 23.8 0 0 1 1.454 3.505h.38v2.511H45.22Zm11.4-9.033c-.807-1.505-1.819-2.258-3.035-2.258-.614 0-1.12.199-1.518.596-.397.397-.596.903-.596 1.518a1.57 1.57 0 0 0 .578 1.237c.181.15.389.271.624.361.234.09.478.136.731.136.506 0 1.024-.13 1.554-.388.53-.26 1.084-.66 1.662-1.202Zm-10.894 9.033c-.217.843-.735 1.265-1.554 1.265-1.011 0-1.704-.56-2.077-1.68-.06-.205-.133-.608-.217-1.21a76.915 76.915 0 0 1-.29-2.44 16.454 16.454 0 0 0-.37-2.113c-.15-.59-.34-1.06-.569-1.41-.289-.47-1.186-.885-2.691-1.246-1.241-.35-1.861-.958-1.861-1.825 0-.542.289-.987.867-1.337a3.459 3.459 0 0 1 1.662-.397c.807 0 2.469.036 4.986.108.157.35.298.735.425 1.156.126.422.256.874.388 1.355-.036.073-.18.271-.433.597a.867.867 0 0 0-.181.325c-.036.12-.054.247-.054.38 0 .288.27 1.228.813 2.818.698 1.975 1.048 3.023 1.048 3.143h.885v2.511h-.777Zm-5.926-.993c0 .229-.045.445-.135.65a1.77 1.77 0 0 1-.913.912c-.204.09-.421.136-.65.136-.229 0-.446-.045-.65-.136a1.77 1.77 0 0 1-.913-.912 1.657 1.657 0 0 1 0-1.31 1.74 1.74 0 0 1 .913-.921c.204-.09.421-.136.65-.136.229 0 .446.046.65.136a1.74 1.74 0 0 1 1.048 1.58Zm-6.341-1.518c0 1.072-.428 1.8-1.283 2.186-.53.217-1.433.325-2.71.325h-7.66v-2.51h5.71c.637 0 .957-.115.957-.344-.892-1.457-1.337-2.355-1.337-2.692 0-1.084.632-1.626 1.897-1.626 1.084 0 2.095.506 3.035 1.518.927 1 1.391 2.047 1.391 3.143Zm-8.69-12.881c0 .759-.385 1.575-1.156 2.448-.771.873-1.927 1.821-3.469 2.845-2.42 1.59-5.558 2.403-9.413 2.44.338.192.735.454 1.193.785.457.331.975.75 1.554 1.256 1.228 1.06 2.137 1.758 2.728 2.095.542.338 1.062.59 1.562.76.5.168 1.003.252 1.509.252h3.776v2.511c-1.036 0-2.59.109-4.661.326a54.733 54.733 0 0 1-2.683.289c-.765.06-1.412.09-1.942.09-.398 0-.88-.554-1.446-1.662a58.504 58.504 0 0 0-.406-.84 69.031 69.031 0 0 1-.623-1.31 7.611 7.611 0 0 0-1.283-1.933 6.89 6.89 0 0 0-1.861-1.427 8.843 8.843 0 0 0-1.554-.723 4.27 4.27 0 0 0-1.373-.253c-.566 0-.945.066-1.138.199-.47.24-.705.819-.705 1.734v2.114l.037 2.132c0 1.035-.223 1.553-.669 1.553-.662 0-1.3-1.192-1.915-3.577C.277 12.195 0 10.641 0 9.558c0-.772.301-1.404.903-1.898.542-.47 1.217-.704 2.024-.704.53 0 1.33.036 2.403.108.542.048 1.017.081 1.427.1.41.017.753.026 1.03.026 4.456 0 7.708-.788 9.755-2.366.097-.085.365-.365.804-.84.44-.476 1.04-1.148 1.798-2.015C21.288.656 22.246 0 23.017 0c1.168 0 1.752.705 1.752 2.114Z"/></svg>
